X:1
T:I Shall See the King
T:I Shall See the King
T:Bentley DeForest Ackley
T:William Charles Poole, 1915
T:Public Domain, Courtesy of the Cyber Hymnal™
C:Bentley DeForest Ackley
Z:Public Domain,
Z:Courtesy of the Cyber Hymnal™
%%score 1 ( 2 3 )
L:1/8
Q:1/4=110
M:4/4
K:Bb
V:1 treble 
V:2 bass 
V:3 bass 
V:1
 [B,D]>[CE] | [DF]2 [EG]2 [DF]2 [Fd]>[Ec] | [DB]2 [EB]2 [DB]2 [EA]>[FB] | [Fc]3 [Ec] [DB]2 [Fc]2 | %4
w: 1.~I shall|see the King Where the|an- gels sing; I shall|see the King some|
w: 2.~In the|land of song, In the|glo- ry- throng, Where there|ne- ver comes a|
w: 3.~I shall|see the King, All my|trib- utes bring, And shall|look up- on His|
 [Fd]6 [B,D]>[CE] | [DF]2 [EG]2 [DF]2 [Fd]>[Ec] | [DB]2 [EB]2 [DB]2 [EA]>[FB] | %7
w: day, In the|bet- ter land, On the|gold- en strand, And with|
w: night, With my|Lord once slain I shall|ev- er reign In the|
w: face; Then my|song shall be How He|ran- somed me And has|
 [Fc]3 [Fe] [Fd]2 [Ec]2 | [DB]6 ||"^Refrain" [B,D]>[CE] | [DF]2 [DF]4 [DB]>[Ec] | %11
w: Him shall ev- er|stay.|||
w: glo- ry- land of|light.|In His|glo- ry, I shall|
w: kept me by His|grace.|||
 [Fd]>[=E^c] [Fd]4 [Fd]>[^F=c] | [GB]2 [GB]4 [FA]>[EG] | [EG]>[DF] [DF]4 [B,D]>[CE] | %14
w: |||
w: see the King, And for-|ev- er end- less|prais- es sing; ’Twas on|
w: |||
 [DF]2 [EG]2 [DF]2 [FB]>[Fc] | [Fd]2 [Ge]2 [Fd]4 | %16
w: ||
w: Cal- va- ry Je- sus|died for me;|
w: ||
 !>![Fd]!>![Ec]!>![D=B]!>![Ec] !fermata![Af]2 [EA]2 | [DB]6 |] %18
w: ||
w: I shall see the King some|day.|
w: ||
V:2
 [B,,F,]>[B,,F,] | [B,,B,]2 [B,,B,]2 [B,,B,]2 [B,,B,]>[B,,B,] | %2
 [B,,F,]2 [B,,G,]2 [B,,F,]2 [C,F,]>[D,B,] | [F,A,]3 [F,A,] [G,B,]2 [F,A,]2 | B,6 [D,F,]>[B,,F,] | %5
 [B,,B,]2 [B,,B,]2 [B,,B,]2 [B,,B,]>[B,,B,] | [B,,F,]2 [B,,G,]2 [B,,F,]2 [C,F,]>[D,B,] | %7
 [F,A,]3 [F,C] [F,B,]2 (A,F,) | [B,,F,]6 || [B,,F,]>[B,,F,] | [B,,B,]2 [B,,B,]4 [B,,F,]>[B,,F,] | %11
 [B,,B,]>[B,,B,] [B,,B,]4 [B,,B,]>[B,,B,] | [E,B,]2 [E,E]4 [E,B,]>[E,B,] | %13
 [B,,B,]>[B,,B,] [B,,B,]4 [B,,F,]>[B,,F,] | [B,,B,]2 [B,,B,]2 [B,,B,]2 [D,B,]>[F,A,] | %15
 B,2 B,2 B,4 | [F,A,][F,A,][F,^G,][F,A,] !fermata![F,C]2 [F,C]2 | [B,,B,]6 |] %18
V:3
 x2 | x8 | x8 | x8 | B,6 x2 | x8 | x8 | x6 F,2 | x6 || x2 | x8 | x8 | x8 | x8 | x8 | B,2 B,2 B,4 | %16
 x8 | x6 |] %18

